X:4026
T:Marsch efter Per Myhr, Gl\"ote
O:england
S:E\"O nr 711
R:March
R:G\aa{}ngl\aa{}t
M:2/4
L:1/8
B:Einar \"Overg\aa{}rd nr 711
A:W.H\"arjedalen
K:D
A|\
d>e fd | A2 F(F/G/) | \
(G/E/)(E/G/) BA | (A/F/)(F/D/) Dz/A/| \
d>e fd|A2 F(F/G/)|\
E(E/G/) B(G/B/)|[A3A3]::
c|\
[e2e2] ec|A3 g|f>e fd|B3 G|\
E2 CA,|[A3A3] c|e>d cB/c/|[D3d3]:|


